Hatter-kde/actions/24/filename-title-amarok.svg

<?xml version="1.0" encoding="UTF-8"?>
<!DOCTYPE svg>
<svg version="1.1" viewBox="0 0 24 24" xmlns="http://www.w3.org/2000/svg">
 <defs>
  <style id="current-color-scheme" type="text/css">.ColorScheme-Text {
                color:#363636;
            }
            .ColorScheme-Highlight {
                color:#3daee9;
            }</style>
 </defs>
 <g transform="translate(1,1)" fill="currentColor">
  <path class="ColorScheme-Text" d="m4 19v-16h10l4 4v12h-14zm1-1h12v-10h-4v-4h-8v14z"/>
  <path class="ColorScheme-Highlight" d="m7 6v2h5v-2h-5z"/>
 </g>
</svg>

<!DOCTYPE svg>
<svg viewBox="0 0 24 24" version="1.1" xmlns="http://www.w3.org/2000/svg">
    <defs>
        <style type="text/css" id="current-color-scheme">
            .ColorScheme-Text {
                color:#363636;
            }
            .ColorScheme-Highlight {
                color:#3daee9;
            }
        </style>
    </defs><g transform="translate(1,1)">
    <path class="ColorScheme-Text" style="fill:currentColor; fill-opacity:1; stroke:none" d="M 4 19 L 4 3 L 14 3 L 18 7 L 18 19 L 4 19 Z M 5 18 L 17 18 L 17 8 L 13 8 L 13 4 L 5 4 L 5 18 Z"/>
    <path class="ColorScheme-Highlight" style="fill:currentColor; fill-opacity:1; stroke:none" d="M 7 6 L 7 8 L 12 8 L 12 6 L 7 6 Z"/>
</g></svg>
